public/assets/team-decor.svg

<svg xmlns="http://www.w3.org/2000/svg" width="322" height="837" fill="none" viewBox="0 0 322 837"><g stroke="#adcb53" stroke-miterlimit="10" clip-path="url(#a)" opacity=".5"><path d="M447.355 60.269c-24.565-6.58-57.346.1-80.413 8.988-32.924 12.733-63.776 40.586-73.095 74.769-11.48 42.509-35.353 55.497-67.707 82.17-25.323 20.935-46.408 46.778-60.115 76.668-51.226 112.135-17.195 228.249 60.311 317.473 25.768 29.66 53.81 57.206 80.258 86.348 19.873 21.939 56.761 51.384 54.784 83.094"/><path d="M517.703 441.453c-21.118-19.769-45.967-35.859-63.923-44.31-41.111-19.342-108.533-25.575-145.563 5.718-47.313 39.949-35.702 101.342-.102 145.803 26.84 33.405 67.972 44.257 110.735 43.495 37.716-.626 77.888-7.977 109.752-29.171 15.618-10.38 30.39-25.427 31.55-44.186 1.7-26.57-17.915-54.37-42.449-77.349Z"/><path d="M408.129 640.224c50.88 3.987 111.586-4.277 155.612-31.292 17.932-11.053 40.816-31.867 42.114-54.791 6.069-111.699-115.273-236.978-224.89-239.967-60.501-1.647-122.64 24.495-149.179 81.753-20.036 43.156-21.63 95.304-1.355 138.401 30.724 65.374 105.547 100.235 177.698 105.896Z"/></g><defs><clipPath id="a"><path fill="#fff" d="m353.388.62 435.27 273.568L435.27 836.456 0 562.888z"/></clipPath></defs></svg>

<svg width="322" height="837" viewBox="0 0 322 837" fill="none" xmlns="http://www.w3.org/2000/svg">
<g opacity="0.5" clip-path="url(#clip0_8058_5306)">
<path d="M447.355 60.269C422.79 53.6882 390.009 60.3686 366.942 69.257C334.018 81.9896 303.166 109.843 293.847 144.026C282.367 186.535 258.494 199.523 226.14 226.196C200.817 247.131 179.732 272.974 166.025 302.864C114.799 414.999 148.83 531.113 226.336 620.337C252.104 649.997 280.146 677.543 306.594 706.685C326.467 728.624 363.355 758.069 361.378 789.779" stroke="#ADCB53" stroke-miterlimit="10"/>
<path d="M517.703 441.453C496.585 421.684 471.736 405.594 453.78 397.143C412.669 377.801 345.247 371.568 308.217 402.861C260.904 442.81 272.515 504.203 308.115 548.664C334.955 582.069 376.087 592.921 418.85 592.159C456.566 591.533 496.738 584.182 528.602 562.988C544.22 552.608 558.992 537.561 560.152 518.802C561.852 492.232 542.237 464.432 517.703 441.453Z" stroke="#ADCB53" stroke-miterlimit="10"/>
<path d="M408.129 640.224C459.009 644.211 519.715 635.947 563.741 608.932C581.673 597.879 604.557 577.065 605.855 554.141C611.924 442.442 490.582 317.163 380.965 314.174C320.464 312.527 258.325 338.669 231.786 395.927C211.75 439.083 210.156 491.231 230.431 534.328C261.155 599.702 335.978 634.563 408.129 640.224Z" stroke="#ADCB53" stroke-miterlimit="10"/>
</g>
<defs>
<clipPath id="clip0_8058_5306">
<rect width="514.1" height="664.1" fill="white" transform="translate(353.388 0.619629) rotate(32.1495)"/>
</clipPath>
</defs>
</svg>
